src/assets/svg/car-brands/Vector.svg

<svg width="36" height="32" viewBox="0 0 36 32" fill="currentColor" xmlns="http://www.w3.org/2000/svg">
<path fill-rule="evenodd" clip-rule="evenodd" d="M34.4695 30.3132C31.3665 27.6526 22.1477 20.0821 17.7714 20.0821C13.3932 20.0821 4.18143 27.6475 1.07655 30.3099C1.0579 29.681 1.04053 29.299 1.04053 28.7388C1.04053 28.7388 0.96465 27.8141 1.78267 26.8886C8.51335 20.7901 15.5701 17.8061 15.7868 17.7148C17.891 16.8254 17.7727 16.9926 17.7708 13.4234C17.7708 13.4234 17.8647 13.4176 17.9245 13.4241C20.8879 13.6922 28.8552 21.4249 33.5704 26.6526C33.5788 26.6616 34.501 27.7292 34.501 28.8546C34.5023 29.3819 34.4869 29.9022 34.4695 30.3132ZM34.3428 25.9491C33.8418 25.3934 22.0429 12.3694 17.7714 12.3694C13.5012 12.3694 1.70164 25.3934 1.20131 25.9484L1.20067 25.9491C1.15179 26.0037 0 27.3202 0 28.8552C0 30.0501 0.0791013 31.2527 0.0803875 31.2643C0.0829599 31.3196 0.110613 31.8277 0.392934 31.9659C0.438594 31.9884 0.488113 32 0.538918 32C0.643743 32 0.760788 31.9531 0.887478 31.8604C1.01481 31.7479 13.035 21.131 17.7714 21.131C22.5085 21.131 34.5293 31.7479 34.6496 31.8553C34.7808 31.9518 34.8991 32 35.0052 32C35.0566 32 35.1049 31.9884 35.1512 31.9666C35.4329 31.8289 35.4605 31.3202 35.4631 31.263C35.4637 31.254 35.5428 30.0514 35.5428 28.8565C35.5428 27.3202 34.391 26.0037 34.3428 25.9491ZM34.4528 17.9258C31.353 15.2685 22.1432 7.70562 17.7721 7.70562C13.3983 7.70562 4.19558 15.264 1.09391 17.9232C1.07526 17.2955 1.0579 16.9129 1.0579 16.354C1.0579 16.354 0.982013 15.4299 1.79939 14.5058C8.52364 8.41303 15.5733 5.43226 15.7894 5.34094C17.8917 4.45218 17.7733 4.61939 17.7714 1.05404C17.7714 1.05404 17.8647 1.04825 17.9251 1.05468C20.8853 1.32286 28.8449 9.04777 33.555 14.2697C33.5634 14.2787 34.4849 15.345 34.4849 16.4698C34.4856 16.9958 34.4695 17.5155 34.4528 17.9258ZM34.3261 13.5662C33.8251 13.0112 22.0384 0 17.7714 0C13.5057 0 1.71772 13.0112 1.21803 13.5655L1.21739 13.5662C1.16851 13.6209 0.0173642 14.936 0.0173642 16.4698C0.0173642 17.6634 0.0971085 18.8647 0.0977516 18.8763C0.100324 18.9316 0.127977 19.439 0.409655 19.5772C0.455315 19.5998 0.504833 19.6107 0.555638 19.6107C0.660464 19.6107 0.776865 19.5637 0.903556 19.4711C1.03153 19.3586 13.0395 8.75259 17.7714 8.75259C22.504 8.75259 34.5126 19.3586 34.6328 19.466C34.7634 19.5625 34.8817 19.61 34.9878 19.61C35.0393 19.61 35.0875 19.5991 35.1338 19.5766C35.4149 19.439 35.4432 18.9309 35.4451 18.8737C35.4457 18.8647 35.5248 17.6634 35.5248 16.4698C35.5255 14.936 34.375 13.6209 34.3261 13.5662Z" fill="currentColor"/>
</svg>

<svg xmlns="http://www.w3.org/2000/svg" width="36" height="32" fill="currentColor" viewBox="0 0 36 32"><path fill-rule="evenodd" d="M34.47 30.313c-3.104-2.66-12.322-10.23-16.699-10.23S4.181 27.647 1.077 30.31c-.02-.629-.036-1.011-.036-1.571 0 0-.076-.925.742-1.85 6.73-6.099 13.787-9.083 14.004-9.174 2.104-.89 1.986-.722 1.984-4.292 0 0 .094-.005.153.001 2.964.268 10.931 8 15.646 13.229.009.009.931 1.076.931 2.202.001.527-.014 1.047-.032 1.458m-.127-4.364c-.501-.556-12.3-13.58-16.572-13.58-4.27 0-16.07 13.024-16.57 13.58-.05.055-1.2 1.371-1.2 2.906 0 1.195.08 2.398.08 2.41.003.055.03.563.313.7A.3.3 0 0 0 .539 32q.158 0 .348-.14c.128-.112 12.148-10.729 16.884-10.729 4.738 0 16.758 10.617 16.879 10.724q.196.145.355.145.078 0 .146-.033c.282-.138.31-.647.312-.704 0-.009.08-1.212.08-2.407 0-1.536-1.152-2.852-1.2-2.907m.11-8.023c-3.1-2.657-12.31-10.22-16.68-10.22-4.375 0-13.577 7.558-16.68 10.217-.018-.627-.035-1.01-.035-1.569 0 0-.076-.924.741-1.848C8.524 8.413 15.573 5.432 15.79 5.34c2.103-.889 1.984-.722 1.982-4.287 0 0 .094-.006.154 0 2.96.269 10.92 7.994 15.63 13.216.008.009.93 1.075.93 2.2 0 .526-.016 1.046-.032 1.456m-.127-4.36C33.826 13.011 22.038 0 17.771 0 13.506 0 1.718 13.011 1.218 13.566c-.05.055-1.2 1.37-1.2 2.904 0 1.193.08 2.395.08 2.406.002.056.03.563.312.701a.3.3 0 0 0 .146.034q.156 0 .348-.14C1.032 19.36 13.04 8.753 17.77 8.753c4.733 0 16.742 10.606 16.862 10.713q.196.144.355.144.077 0 .146-.033c.28-.138.31-.646.311-.703 0-.01.08-1.21.08-2.404 0-1.534-1.15-2.85-1.199-2.904" clip-rule="evenodd"/></svg>
